X:1
T: Summer Days
C:
R:Strathspey
Q: 128
K:A
M:4/4
L:1/16
|:AA3 G3F E4 A3B|c3A d3B e3c ea3|AA3 G3F E4 A3B|cf3 e3c B6 c2|
AA3 G3F E4 A3B|c3A d3B e3c ea3|AA3 G3F E4 A3B|cf3 e3c B6 c2|
A3B c3d e3c ea3|fa3 g3f e3c B3c|AA3 G3F E4 A3B|cf3 e3c B6 c2|
A3B c3d e3c ea3|fa3 g3f e3c B3c|AA3 G3F E4 A3B|ce3 B3c A6 z2:|
